public/static/img/crypto/BNB.svg

<svg width="48" height="48" viewBox="0 0 48 48" fill="none" xmlns="http://www.w3.org/2000/svg">
<g clip-path="url(#clip0_1150_13675)">
<path d="M24.0004 0C37.2546 0 48.0004 10.7453 48.0004 24C48.0004 37.2547 37.2546 48 24.0004 48C10.7452 48 0.000366227 37.2542 0.000366227 24C-0.000113773 10.7453 10.7452 0 24.0004 0Z" fill="#CD9938"/>
<path d="M15.2505 12.5505L24 7.5L32.7495 12.5505L29.5335 14.4165L24 11.232L18.468 14.415L15.2505 12.5505ZM32.7495 18.9195L29.5335 17.0535L24 20.238L18.468 17.055L15.2505 18.9195V22.65L20.784 25.8345V32.2035L24 34.0695L27.2175 32.2035V25.8345L32.7495 22.65V18.9195ZM32.7495 29.0205V25.2885L29.5335 27.1545V30.885L32.7495 29.0205ZM35.034 30.339L29.5005 33.5235V37.254L38.25 32.205V22.104L35.0325 23.97V30.339H35.034ZM31.815 15.735L35.0325 17.601V21.3315L38.25 19.4655V15.735L35.0325 13.869L31.8165 15.735H31.815ZM20.784 34.875V38.6055L24 40.4715L27.2175 38.6055V34.8735L24 36.7395L20.784 34.875ZM15.2505 29.0205L18.468 30.885V27.1545L15.2505 25.2885V29.0205ZM20.784 15.735L24 17.601L27.2175 15.735L24 13.869L20.784 15.735ZM12.966 17.601L16.185 15.735L12.966 13.869L9.75 15.735V19.4655L12.966 21.3315V17.601ZM12.966 23.97L9.75 22.104V32.2035L18.4995 37.254V33.525L12.966 30.3405V23.97Z" fill="white"/>
</g>
<defs>
<clipPath id="clip0_1150_13675">
<rect width="48" height="48" fill="white"/>
</clipPath>
</defs>
</svg>

<svg width="48" height="48" fill="none" xmlns="http://www.w3.org/2000/svg"><g clip-path="url(#a)"><path d="M24 0c13.255 0 24 10.745 24 24S37.255 48 24 48 0 37.254 0 24C0 10.745 10.745 0 24 0Z" fill="#CD9938"/><path d="M15.25 12.55 24 7.5l8.75 5.05-3.216 1.866L24 11.232l-5.532 3.183-3.217-1.864Zm17.5 6.37-3.216-1.867L24 20.238l-5.532-3.183-3.217 1.864v3.731l5.533 3.184v6.37L24 34.069l3.218-1.866v-6.369l5.531-3.184v-3.73Zm0 10.1v-3.732l-3.216 1.866v3.731l3.215-1.865Zm2.284 1.319L29.5 33.523v3.731l8.75-5.049V22.104l-3.218 1.866v6.369h.002Zm-3.219-14.604 3.217 1.866v3.73l3.218-1.866v-3.73l-3.218-1.866-3.215 1.866h-.002Zm-11.031 19.14v3.73L24 40.472l3.218-1.867v-3.731L24 36.739l-3.216-1.864Zm-5.533-5.855 3.217 1.865v-3.73l-3.217-1.867v3.732Zm5.533-13.285L24 17.601l3.218-1.866L24 13.869l-3.216 1.866Zm-7.818 1.866 3.219-1.866-3.219-1.866-3.216 1.866v3.73l3.216 1.866v-3.73Zm0 6.369L9.75 22.104v10.1l8.75 5.05v-3.729l-5.534-3.184V23.97Z" fill="#fff"/></g><defs><clipPath id="a"><path fill="#fff" d="M0 0h48v48H0z"/></clipPath></defs></svg>
